sites/OJJO/images/youtubewhite.svg

<svg width="26" height="26" viewBox="0 0 26 26" fill="none" xmlns="http://www.w3.org/2000/svg">
<path d="M23.8956 7.52385C23.7662 7.04288 23.5127 6.60435 23.1605 6.25215C22.8083 5.89995 22.3697 5.64643 21.8888 5.51697C20.1175 5.0376 13 5.0376 13 5.0376C13 5.0376 5.8825 5.0376 4.11125 5.51697C3.63029 5.64643 3.19176 5.89995 2.83956 6.25215C2.48736 6.60435 2.23384 7.04288 2.10438 7.52385C1.77365 9.33025 1.61315 11.1637 1.625 13.0001C1.61315 14.8365 1.77365 16.6699 2.10438 18.4763C2.23384 18.9573 2.48736 19.3958 2.83956 19.748C3.19176 20.1002 3.63029 20.3538 4.11125 20.4832C5.8825 20.9626 13 20.9626 13 20.9626C13 20.9626 20.1175 20.9626 21.8888 20.4832C22.3697 20.3538 22.8083 20.1002 23.1605 19.748C23.5127 19.3958 23.7662 18.9573 23.8956 18.4763C24.2264 16.6699 24.3869 14.8365 24.375 13.0001C24.3869 11.1637 24.2264 9.33025 23.8956 7.52385ZM10.725 16.4126V9.5876L16.6319 13.0001L10.725 16.4126Z" fill="white"/>
</svg>

<svg width="26" height="26" fill="none" xmlns="http://www.w3.org/2000/svg"><path d="M23.896 7.524a2.843 2.843 0 0 0-2.007-2.007c-1.771-.48-8.889-.48-8.889-.48s-7.117 0-8.889.48a2.844 2.844 0 0 0-2.007 2.007A29.356 29.356 0 0 0 1.625 13c-.012 1.836.149 3.67.48 5.476a2.844 2.844 0 0 0 2.006 2.007c1.772.48 8.889.48 8.889.48s7.117 0 8.889-.48a2.844 2.844 0 0 0 2.007-2.007c.33-1.806.49-3.64.479-5.476a29.346 29.346 0 0 0-.48-5.476Zm-13.171 8.889V9.588L16.632 13l-5.907 3.413Z" fill="#fff"/></svg>
